P3
# player-c-hangaim-away: wallhang aim straight away — gun nub at torso, left edge (canonical hang_wall=1)
8 8
255
95 87 79  255 236 39  0 0 0  0 0 0  0 0 0  0 0 0  255 236 39  95 87 79
95 87 79  255 236 39  255 236 39  0 0 0  0 0 0  255 236 39  255 236 39  95 87 79
255 163 0  95 87 79  255 236 39  255 236 39  255 236 39  255 236 39  95 87 79  0 0 0
255 163 0  255 163 0  255 236 39  255 236 39  255 236 39  255 236 39  0 0 0  0 0 0
0 0 0  0 0 0  95 87 79  255 236 39  255 236 39  95 87 79  0 0 0  0 0 0
0 0 0  0 0 0  95 87 79  255 236 39  255 236 39  95 87 79  0 0 0  0 0 0
0 0 0  0 0 0  0 0 0  255 236 39  255 236 39  0 0 0  0 0 0  0 0 0
0 0 0  0 0 0  0 0 0  95 87 79  95 87 79  0 0 0  0 0 0  0 0 0
