P3
# art-ice-missile: Ice Missile icon: cyan missile, white tip, navy fins.
8 8
255
0 0 0  0 0 0  0 0 0  255 241 232  0 0 0  0 0 0  0 0 0  0 0 0
0 0 0  0 0 0  255 241 232  41 173 255  41 173 255  0 0 0  0 0 0  0 0 0
0 0 0  0 0 0  41 173 255  41 173 255  41 173 255  41 173 255  0 0 0  0 0 0
0 0 0  0 0 0  41 173 255  41 173 255  41 173 255  41 173 255  0 0 0  0 0 0
0 0 0  0 0 0  41 173 255  41 173 255  41 173 255  41 173 255  0 0 0  0 0 0
0 0 0  29 43 83  41 173 255  41 173 255  41 173 255  41 173 255  29 43 83  0 0 0
29 43 83  29 43 83  41 173 255  41 173 255  41 173 255  41 173 255  29 43 83  29 43 83
0 0 0  0 0 0  0 0 0  255 163 0  255 163 0  0 0 0  0 0 0  0 0 0
