P3
# art-fractal-blaster: Fractal Blaster icon: cyan/indigo bulb with pink Julia-set spark.
8 8
255
0 0 0  0 0 0  0 0 0  131 118 156  131 118 156  0 0 0  0 0 0  0 0 0
0 0 0  0 0 0  131 118 156  41 173 255  41 173 255  131 118 156  0 0 0  0 0 0
0 0 0  131 118 156  41 173 255  41 173 255  255 119 168  41 173 255  41 173 255  131 118 156
0 0 0  131 118 156  41 173 255  255 119 168  41 173 255  41 173 255  41 173 255  131 118 156
0 0 0  131 118 156  41 173 255  41 173 255  41 173 255  255 119 168  41 173 255  131 118 156
0 0 0  0 0 0  131 118 156  41 173 255  41 173 255  131 118 156  0 0 0  0 0 0
0 0 0  0 0 0  0 0 0  131 118 156  131 118 156  0 0 0  0 0 0  0 0 0
0 0 0  0 0 0  194 195 199  194 195 199  194 195 199  194 195 199  0 0 0  0 0 0
