P3
# art-vampiric-cape: Vampiric Cape: tattered dark-purple cape with pink lining and a high collar.
8 8
255
0 0 0  126 37 83  0 0 0  0 0 0  0 0 0  0 0 0  126 37 83  0 0 0
0 0 0  126 37 83  126 37 83  0 0 0  0 0 0  126 37 83  126 37 83  0 0 0
0 0 0  126 37 83  255 119 168  126 37 83  126 37 83  255 119 168  126 37 83  0 0 0
0 0 0  126 37 83  255 119 168  255 119 168  255 119 168  255 119 168  126 37 83  0 0 0
0 0 0  126 37 83  255 119 168  255 119 168  255 119 168  255 119 168  126 37 83  0 0 0
0 0 0  126 37 83  255 119 168  126 37 83  255 119 168  126 37 83  126 37 83  0 0 0
0 0 0  126 37 83  126 37 83  0 0 0  126 37 83  0 0 0  126 37 83  0 0 0
0 0 0  0 0 0  126 37 83  0 0 0  0 0 0  0 0 0  126 37 83  0 0 0
