P3
# art-wallbreaker: Wallbreaker icon: orange fist cracking a gray brick.
8 8
255
0 0 0  0 0 0  194 195 199  194 195 199  194 195 199  0 0 0  0 0 0  0 0 0
0 0 0  194 195 199  194 195 199  95 87 79  194 195 199  194 195 199  194 195 199  0 0 0
194 195 199  194 195 199  95 87 79  95 87 79  95 87 79  194 195 199  194 195 199  0 0 0
0 0 0  255 163 0  255 163 0  255 163 0  255 163 0  255 163 0  0 0 0  0 0 0
255 163 0  255 163 0  255 163 0  255 163 0  255 163 0  255 163 0  255 163 0  0 0 0
255 163 0  255 163 0  255 163 0  255 163 0  255 163 0  255 163 0  255 163 0  0 0 0
0 0 0  255 163 0  255 163 0  255 163 0  255 163 0  255 163 0  0 0 0  0 0 0
0 0 0  0 0 0  255 163 0  255 163 0  255 163 0  0 0 0  0 0 0  0 0 0
