P3
# art-spiral-borer: Spiral Borer: gray drill cone with an indigo spiral groove, point down.
8 8
255
0 0 0  0 0 0  0 0 0  0 0 0  0 0 0  0 0 0  0 0 0  0 0 0
0 0 0  194 195 199  194 195 199  194 195 199  194 195 199  194 195 199  194 195 199  0 0 0
0 0 0  194 195 199  131 118 156  95 87 79  131 118 156  95 87 79  194 195 199  0 0 0
0 0 0  0 0 0  194 195 199  95 87 79  131 118 156  95 87 79  0 0 0  0 0 0
0 0 0  0 0 0  194 195 199  131 118 156  95 87 79  194 195 199  0 0 0  0 0 0
0 0 0  0 0 0  0 0 0  131 118 156  95 87 79  0 0 0  0 0 0  0 0 0
0 0 0  0 0 0  0 0 0  194 195 199  95 87 79  0 0 0  0 0 0  0 0 0
0 0 0  0 0 0  0 0 0  0 0 0  131 118 156  0 0 0  0 0 0  0 0 0
