P3
# art-rocket-fin: Mysterious Rocket Fin: orange blade on a red root, humming spark.
8 8
255
0 0 0  0 0 0  0 0 0  0 0 0  0 0 0  0 0 0  255 241 232  0 0 0
0 0 0  0 0 0  0 0 0  0 0 0  0 0 0  255 163 0  255 163 0  0 0 0
0 0 0  0 0 0  0 0 0  0 0 0  255 163 0  255 163 0  255 163 0  0 0 0
0 0 0  0 0 0  0 0 0  255 163 0  255 163 0  255 163 0  255 163 0  0 0 0
0 0 0  0 0 0  255 163 0  255 163 0  255 163 0  255 163 0  255 163 0  0 0 0
0 0 0  255 163 0  255 163 0  255 163 0  255 163 0  255 0 77  255 0 77  0 0 0
0 0 0  255 163 0  255 163 0  255 0 77  255 0 77  255 0 77  255 0 77  0 0 0
0 0 0  255 0 77  255 0 77  255 0 77  255 0 77  0 0 0  0 0 0  0 0 0
