P3
# art-mechaspider-legs: Mechaspider Legs: eight gray legs radiating from a red core.
8 8
255
194 195 199  0 0 0  0 0 0  194 195 199  194 195 199  0 0 0  0 0 0  194 195 199
0 0 0  194 195 199  0 0 0  194 195 199  194 195 199  0 0 0  194 195 199  0 0 0
0 0 0  0 0 0  194 195 199  95 87 79  95 87 79  194 195 199  0 0 0  0 0 0
194 195 199  194 195 199  95 87 79  255 0 77  255 0 77  95 87 79  194 195 199  194 195 199
194 195 199  194 195 199  95 87 79  255 0 77  255 0 77  95 87 79  194 195 199  194 195 199
0 0 0  0 0 0  194 195 199  95 87 79  95 87 79  194 195 199  0 0 0  0 0 0
0 0 0  194 195 199  0 0 0  194 195 199  194 195 199  0 0 0  194 195 199  0 0 0
194 195 199  0 0 0  0 0 0  194 195 199  194 195 199  0 0 0  0 0 0  194 195 199
