P3
# crawler-b: Crawler, legs frame B.
8 8
255
0 0 0  0 0 0  0 0 0  0 0 0  0 0 0  0 0 0  0 0 0  0 0 0
0 0 0  0 0 0  126 37 83  131 118 156  131 118 156  126 37 83  0 0 0  0 0 0
0 0 0  126 37 83  131 118 156  131 118 156  131 118 156  131 118 156  126 37 83  0 0 0
126 37 83  126 37 83  126 37 83  126 37 83  126 37 83  126 37 83  255 0 77  126 37 83
126 37 83  126 37 83  126 37 83  126 37 83  126 37 83  126 37 83  126 37 83  126 37 83
0 0 0  126 37 83  0 0 0  126 37 83  126 37 83  0 0 0  126 37 83  0 0 0
95 87 79  0 0 0  95 87 79  0 0 0  0 0 0  95 87 79  0 0 0  95 87 79
0 0 0  95 87 79  0 0 0  95 87 79  95 87 79  0 0 0  95 87 79  0 0 0
