P3
# flyer-a: Flyer A: moth-like, pale body with green eye, dark-green membranous wings with indigo veins, wings raised. Faces right.
16 8
255
0 0 0  0 135 81  0 135 81  0 0 0  0 0 0  0 0 0  0 0 0  0 0 0  0 0 0  0 0 0  0 0 0  0 0 0  0 0 0  0 135 81  0 135 81  0 0 0
0 0 0  0 135 81  131 118 156  0 135 81  0 0 0  0 0 0  0 0 0  0 0 0  0 0 0  0 0 0  0 0 0  0 0 0  0 135 81  131 118 156  0 135 81  0 0 0
0 0 0  0 135 81  131 118 156  131 118 156  0 135 81  0 0 0  0 0 0  194 195 199  194 195 199  0 0 0  0 0 0  0 135 81  131 118 156  131 118 156  0 135 81  0 0 0
0 0 0  0 0 0  0 135 81  131 118 156  131 118 156  0 135 81  0 0 0  194 195 199  0 228 54  194 195 199  0 0 0  0 135 81  131 118 156  131 118 156  0 135 81  0 0 0
0 0 0  0 0 0  0 0 0  0 135 81  131 118 156  131 118 156  0 135 81  194 195 199  194 195 199  194 195 199  0 135 81  131 118 156  131 118 156  0 135 81  0 0 0  0 0 0
0 0 0  0 0 0  0 0 0  0 0 0  0 135 81  131 118 156  131 118 156  194 195 199  194 195 199  194 195 199  0 135 81  131 118 156  131 118 156  0 0 0  0 0 0  0 0 0
0 0 0  0 0 0  0 0 0  0 0 0  0 0 0  0 135 81  0 135 81  194 195 199  194 195 199  194 195 199  0 135 81  0 0 0  0 0 0  0 0 0  0 0 0  0 0 0
0 0 0  0 0 0  0 0 0  0 0 0  0 0 0  0 0 0  95 87 79  194 195 199  194 195 199  95 87 79  0 0 0  0 0 0  0 0 0  0 0 0  0 0 0  0 0 0
