P3
# icon-gamepad: 16x8 light-gray gamepad silhouette (d-pad left, buttons right).
16 8
255
0 0 0  0 0 0  0 0 0  194 195 199  194 195 199  194 195 199  194 195 199  194 195 199  194 195 199  194 195 199  194 195 199  194 195 199  194 195 199  0 0 0  0 0 0  0 0 0
0 0 0  0 0 0  194 195 199  194 195 199  194 195 199  194 195 199  194 195 199  194 195 199  194 195 199  194 195 199  194 195 199  194 195 199  194 195 199  194 195 199  0 0 0  0 0 0
0 0 0  194 195 199  194 195 199  0 0 0  194 195 199  0 0 0  194 195 199  194 195 199  194 195 199  194 195 199  194 195 199  0 0 0  194 195 199  0 0 0  194 195 199  0 0 0
0 0 0  194 195 199  194 195 199  194 195 199  194 195 199  194 195 199  194 195 199  194 195 199  194 195 199  194 195 199  194 195 199  194 195 199  194 195 199  194 195 199  0 0 0  194 195 199
194 195 199  0 0 0  194 195 199  0 0 0  194 195 199  0 0 0  194 195 199  194 195 199  194 195 199  0 0 0  194 195 199  0 0 0  194 195 199  0 0 0  194 195 199  194 195 199
194 195 199  194 195 199  194 195 199  194 195 199  194 195 199  194 195 199  194 195 199  194 195 199  194 195 199  194 195 199  194 195 199  194 195 199  194 195 199  194 195 199  0 0 0  194 195 199
194 195 199  194 195 199  194 195 199  194 195 199  194 195 199  194 195 199  0 0 0  0 0 0  0 0 0  0 0 0  194 195 199  194 195 199  194 195 199  194 195 199  194 195 199  194 195 199
194 195 199  194 195 199  194 195 199  194 195 199  0 0 0  0 0 0  0 0 0  0 0 0  0 0 0  0 0 0  0 0 0  0 0 0  194 195 199  194 195 199  194 195 199  194 195 199
