P3
# logo-emblem: Logo emblem: jagged gray stone shard with a cyan glowing core and a pink spark.
16 16
255
0 0 0  0 0 0  0 0 0  0 0 0  0 0 0  0 0 0  194 195 199  194 195 199  0 0 0  0 0 0  0 0 0  0 0 0  0 0 0  0 0 0  0 0 0  0 0 0
0 0 0  0 0 0  0 0 0  0 0 0  0 0 0  194 195 199  95 87 79  95 87 79  194 195 199  0 0 0  0 0 0  0 0 0  0 0 0  0 0 0  0 0 0  0 0 0
0 0 0  0 0 0  0 0 0  0 0 0  194 195 199  95 87 79  95 87 79  95 87 79  95 87 79  41 173 255  194 195 199  0 0 0  0 0 0  0 0 0  0 0 0  0 0 0
0 0 0  0 0 0  0 0 0  194 195 199  95 87 79  95 87 79  95 87 79  95 87 79  95 87 79  41 173 255  41 173 255  194 195 199  0 0 0  0 0 0  0 0 0  0 0 0
0 0 0  0 0 0  194 195 199  95 87 79  95 87 79  95 87 79  95 87 79  41 173 255  41 173 255  41 173 255  41 173 255  41 173 255  194 195 199  0 0 0  0 0 0  0 0 0
0 0 0  0 0 0  194 195 199  95 87 79  95 87 79  95 87 79  41 173 255  41 173 255  255 241 232  41 173 255  41 173 255  41 173 255  194 195 199  0 0 0  0 0 0  0 0 0
0 0 0  194 195 199  95 87 79  95 87 79  95 87 79  41 173 255  41 173 255  255 241 232  255 241 232  41 173 255  41 173 255  95 87 79  194 195 199  0 0 0  0 0 0  0 0 0
0 0 0  194 195 199  95 87 79  95 87 79  41 173 255  41 173 255  41 173 255  255 241 232  41 173 255  41 173 255  41 173 255  95 87 79  95 87 79  194 195 199  0 0 0  0 0 0
0 0 0  194 195 199  95 87 79  95 87 79  41 173 255  41 173 255  41 173 255  41 173 255  41 173 255  41 173 255  95 87 79  95 87 79  95 87 79  194 195 199  0 0 0  0 0 0
0 0 0  0 0 0  194 195 199  95 87 79  95 87 79  41 173 255  41 173 255  41 173 255  41 173 255  95 87 79  95 87 79  95 87 79  95 87 79  194 195 199  0 0 0  0 0 0
0 0 0  0 0 0  194 195 199  95 87 79  95 87 79  95 87 79  41 173 255  41 173 255  95 87 79  95 87 79  95 87 79  95 87 79  255 119 168  194 195 199  0 0 0  0 0 0
0 0 0  0 0 0  0 0 0  194 195 199  95 87 79  95 87 79  95 87 79  95 87 79  95 87 79  95 87 79  95 87 79  255 119 168  255 119 168  194 195 199  0 0 0  0 0 0
0 0 0  0 0 0  0 0 0  0 0 0  194 195 199  95 87 79  95 87 79  95 87 79  95 87 79  95 87 79  95 87 79  95 87 79  194 195 199  0 0 0  0 0 0  0 0 0
0 0 0  0 0 0  0 0 0  0 0 0  0 0 0  194 195 199  95 87 79  95 87 79  95 87 79  95 87 79  95 87 79  194 195 199  0 0 0  0 0 0  0 0 0  0 0 0
0 0 0  0 0 0  0 0 0  0 0 0  0 0 0  0 0 0  194 195 199  95 87 79  95 87 79  95 87 79  194 195 199  0 0 0  0 0 0  0 0 0  0 0 0  0 0 0
0 0 0  0 0 0  0 0 0  0 0 0  0 0 0  0 0 0  0 0 0  194 195 199  194 195 199  194 195 199  0 0 0  0 0 0  0 0 0  0 0 0  0 0 0  0 0 0
