P3
# missile-canister: Missile ammo canister. Cyan capsule, white highlight, navy outline.
8 8
255
0 0 0  0 0 0  0 0 0  29 43 83  29 43 83  0 0 0  0 0 0  0 0 0
0 0 0  0 0 0  29 43 83  41 173 255  41 173 255  29 43 83  0 0 0  0 0 0
0 0 0  29 43 83  41 173 255  255 241 232  41 173 255  41 173 255  29 43 83  0 0 0
0 0 0  29 43 83  41 173 255  255 241 232  41 173 255  41 173 255  29 43 83  0 0 0
0 0 0  29 43 83  41 173 255  41 173 255  41 173 255  41 173 255  29 43 83  0 0 0
0 0 0  29 43 83  41 173 255  41 173 255  41 173 255  41 173 255  29 43 83  0 0 0
0 0 0  0 0 0  29 43 83  41 173 255  41 173 255  29 43 83  0 0 0  0 0 0
0 0 0  0 0 0  0 0 0  29 43 83  29 43 83  0 0 0  0 0 0  0 0 0
