P3
# player-c-wallhang: Player hanging from a ledge (wall on the right; flipped in code).
8 16
255
0 0 0  0 0 0  95 87 79  95 87 79  95 87 79  95 87 79  0 0 0  0 0 0
0 0 0  95 87 79  255 236 39  255 236 39  255 236 39  255 236 39  95 87 79  0 0 0
95 87 79  255 236 39  255 236 39  255 236 39  255 236 39  255 236 39  194 195 199  95 87 79
95 87 79  255 236 39  255 236 39  95 87 79  41 173 255  41 173 255  41 173 255  95 87 79
95 87 79  255 236 39  255 236 39  255 236 39  95 87 79  95 87 79  95 87 79  0 0 0
0 0 0  95 87 79  255 236 39  255 236 39  255 236 39  95 87 79  0 0 0  0 0 0
0 0 0  0 0 0  95 87 79  255 236 39  95 87 79  0 0 0  0 0 0  0 0 0
0 0 0  255 163 0  255 236 39  255 236 39  255 236 39  255 236 39  255 163 0  0 0 0
0 0 0  0 0 0  255 236 39  255 236 39  255 236 39  255 236 39  255 163 0  255 163 0
0 0 0  255 236 39  255 236 39  255 236 39  255 236 39  255 236 39  255 236 39  255 163 0
0 0 0  95 87 79  255 236 39  255 236 39  255 236 39  255 236 39  95 87 79  0 0 0
0 0 0  0 0 0  95 87 79  255 236 39  255 236 39  95 87 79  0 0 0  0 0 0
0 0 0  0 0 0  255 236 39  255 236 39  95 87 79  255 236 39  0 0 0  0 0 0
0 0 0  255 236 39  255 236 39  0 0 0  0 0 0  255 236 39  255 236 39  0 0 0
0 0 0  255 236 39  95 87 79  0 0 0  0 0 0  95 87 79  255 236 39  0 0 0
0 0 0  95 87 79  95 87 79  0 0 0  0 0 0  95 87 79  95 87 79  0 0 0
