P3
# player-c-jump-spin-3: Player spin jump: curled ball, rotation frame 4 of 4.
8 16
255
0 0 0  0 0 0  0 0 0  0 0 0  0 0 0  0 0 0  0 0 0  0 0 0
0 0 0  0 0 0  0 0 0  0 0 0  0 0 0  0 0 0  0 0 0  0 0 0
0 0 0  0 0 0  0 0 0  0 0 0  0 0 0  0 0 0  0 0 0  0 0 0
0 0 0  0 0 0  0 0 0  0 0 0  0 0 0  0 0 0  0 0 0  0 0 0
0 0 0  0 0 0  95 87 79  95 87 79  95 87 79  95 87 79  0 0 0  0 0 0
0 0 0  95 87 79  95 87 79  41 173 255  41 173 255  95 87 79  95 87 79  0 0 0
95 87 79  255 236 39  255 236 39  255 236 39  95 87 79  255 236 39  255 236 39  95 87 79
95 87 79  255 236 39  255 236 39  255 236 39  255 236 39  255 236 39  255 236 39  95 87 79
95 87 79  255 236 39  255 236 39  255 236 39  255 236 39  255 236 39  255 236 39  95 87 79
95 87 79  255 236 39  255 236 39  255 163 0  255 236 39  255 236 39  255 236 39  95 87 79
0 0 0  95 87 79  255 236 39  255 236 39  255 236 39  255 236 39  95 87 79  0 0 0
0 0 0  0 0 0  95 87 79  95 87 79  95 87 79  95 87 79  0 0 0  0 0 0
0 0 0  0 0 0  0 0 0  0 0 0  0 0 0  0 0 0  0 0 0  0 0 0
0 0 0  0 0 0  0 0 0  0 0 0  0 0 0  0 0 0  0 0 0  0 0 0
0 0 0  0 0 0  0 0 0  0 0 0  0 0 0  0 0 0  0 0 0  0 0 0
0 0 0  0 0 0  0 0 0  0 0 0  0 0 0  0 0 0  0 0 0  0 0 0
