P3
# player-c-burrow-body: Player body while burrowing (SpiralBorer): drill point down.
8 8
255
95 87 79  95 87 79  255 236 39  255 236 39  255 236 39  255 236 39  95 87 79  95 87 79
95 87 79  255 236 39  255 236 39  255 236 39  255 236 39  255 236 39  255 236 39  95 87 79
95 87 79  255 236 39  255 236 39  255 163 0  255 163 0  255 236 39  255 236 39  95 87 79
0 0 0  95 87 79  255 236 39  255 236 39  255 236 39  255 236 39  95 87 79  0 0 0
0 0 0  95 87 79  255 236 39  255 236 39  255 236 39  255 236 39  95 87 79  0 0 0
0 0 0  0 0 0  194 195 199  255 236 39  255 236 39  194 195 199  0 0 0  0 0 0
0 0 0  0 0 0  131 118 156  194 195 199  194 195 199  131 118 156  0 0 0  0 0 0
0 0 0  0 0 0  0 0 0  131 118 156  131 118 156  0 0 0  0 0 0  0 0 0
