P3
# player-c-hangaim-up: wallhang aim straight up — gun arm raised above gripping hand
8 8
255
255 163 0  95 87 79  255 163 0  255 163 0  0 0 0  0 0 0  255 236 39  95 87 79
255 163 0  255 236 39  255 236 39  0 0 0  0 0 0  255 236 39  255 236 39  95 87 79
0 0 0  95 87 79  255 236 39  255 236 39  255 236 39  255 236 39  95 87 79  0 0 0
0 0 0  0 0 0  255 236 39  255 236 39  255 236 39  255 236 39  0 0 0  0 0 0
0 0 0  0 0 0  95 87 79  255 236 39  255 236 39  95 87 79  0 0 0  0 0 0
0 0 0  0 0 0  95 87 79  255 236 39  255 236 39  95 87 79  0 0 0  0 0 0
0 0 0  0 0 0  0 0 0  255 236 39  255 236 39  0 0 0  0 0 0  0 0 0
0 0 0  0 0 0  0 0 0  95 87 79  95 87 79  0 0 0  0 0 0  0 0 0
