P3
# player-c-crouch: Player crouched: whole body compressed into one tile.
8 8
255
0 0 0  95 87 79  194 195 199  194 195 199  194 195 199  194 195 199  95 87 79  0 0 0
95 87 79  194 195 199  194 195 199  255 236 39  255 236 39  194 195 199  194 195 199  95 87 79
0 0 0  95 87 79  194 195 199  194 195 199  194 195 199  194 195 199  95 87 79  0 0 0
0 0 0  95 87 79  255 163 0  255 163 0  255 163 0  255 163 0  95 87 79  0 0 0
95 87 79  95 87 79  255 236 39  255 236 39  255 236 39  255 236 39  95 87 79  95 87 79
95 87 79  255 236 39  255 236 39  255 236 39  255 236 39  255 236 39  255 236 39  95 87 79
95 87 79  95 87 79  255 236 39  95 87 79  95 87 79  255 236 39  95 87 79  95 87 79
0 0 0  95 87 79  95 87 79  0 0 0  0 0 0  95 87 79  95 87 79  0 0 0
