P3
# player-c-aim-dr: Player aim body, cannon DR.
8 8
255
255 163 0  255 236 39  255 236 39  255 236 39  255 236 39  255 236 39  95 87 79  0 0 0
255 236 39  255 236 39  255 236 39  255 236 39  255 236 39  255 163 0  95 87 79  0 0 0
95 87 79  255 236 39  255 236 39  255 236 39  255 236 39  255 163 0  255 163 0  0 0 0
0 0 0  95 87 79  255 236 39  255 236 39  255 236 39  95 87 79  255 163 0  255 163 0
0 0 0  255 236 39  255 236 39  95 87 79  255 236 39  255 236 39  0 0 0  255 163 0
0 0 0  255 236 39  255 236 39  95 87 79  255 236 39  255 236 39  0 0 0  0 0 0
0 0 0  255 236 39  95 87 79  0 0 0  95 87 79  255 236 39  0 0 0  0 0 0
0 0 0  95 87 79  95 87 79  0 0 0  95 87 79  95 87 79  0 0 0  0 0 0
