P3
# shooty-flier-a: ShootyFlier, wings up. Flyer with a red gun-arm on its right side.
16 8
255
0 0 0  0 135 81  0 135 81  0 0 0  0 0 0  0 0 0  0 0 0  0 0 0  0 0 0  0 0 0  0 0 0  0 0 0  0 135 81  0 135 81  0 0 0  0 0 0
0 0 0  0 135 81  0 135 81  0 135 81  0 0 0  0 0 0  0 0 0  0 0 0  0 0 0  0 0 0  0 0 0  0 135 81  0 135 81  0 135 81  0 0 0  0 0 0
0 0 0  0 0 0  0 135 81  0 135 81  0 135 81  0 0 0  0 0 0  95 87 79  95 87 79  0 0 0  0 135 81  0 135 81  0 135 81  0 0 0  0 0 0  0 0 0
0 0 0  0 0 0  0 135 81  0 135 81  0 135 81  0 135 81  0 0 0  95 87 79  0 228 54  95 87 79  0 135 81  0 135 81  0 135 81  0 0 0  0 0 0  0 0 0
0 0 0  0 0 0  0 0 0  0 135 81  0 135 81  0 135 81  95 87 79  95 87 79  95 87 79  95 87 79  95 87 79  0 0 0  255 0 77  255 0 77  255 0 77  0 0 0
0 0 0  0 0 0  0 0 0  0 0 0  0 0 0  0 135 81  95 87 79  95 87 79  95 87 79  95 87 79  95 87 79  0 0 0  255 0 77  0 0 0  255 0 77  255 0 77
0 0 0  0 0 0  0 0 0  0 0 0  0 0 0  0 0 0  95 87 79  95 87 79  95 87 79  95 87 79  0 0 0  0 0 0  255 0 77  255 0 77  255 0 77  0 0 0
0 0 0  0 0 0  0 0 0  0 0 0  0 0 0  0 0 0  0 0 0  95 87 79  95 87 79  0 0 0  0 0 0  0 0 0  0 0 0  0 0 0  0 0 0  0 0 0
