P3
# tile-side: Exposed side face (authored with the open side on the LEFT; flipped for right): bright rim, dark inner seam.
8 8
255
194 195 199  29 43 83  95 87 79  95 87 79  95 87 79  29 43 83  95 87 79  95 87 79
194 195 199  29 43 83  95 87 79  95 87 79  95 87 79  29 43 83  95 87 79  95 87 79
194 195 199  29 43 83  95 87 79  95 87 79  29 43 83  29 43 83  29 43 83  29 43 83
194 195 199  29 43 83  95 87 79  95 87 79  95 87 79  95 87 79  95 87 79  95 87 79
194 195 199  29 43 83  95 87 79  95 87 79  95 87 79  95 87 79  95 87 79  29 43 83
194 195 199  29 43 83  95 87 79  95 87 79  194 195 199  95 87 79  95 87 79  29 43 83
194 195 199  29 43 83  95 87 79  95 87 79  29 43 83  29 43 83  29 43 83  29 43 83
194 195 199  29 43 83  95 87 79  95 87 79  95 87 79  95 87 79  95 87 79  95 87 79
