P3
# tile-top: Walkable surface: bright lip, dark underline, plating below.
8 8
255
194 195 199  194 195 199  194 195 199  194 195 199  194 195 199  194 195 199  194 195 199  194 195 199
95 87 79  95 87 79  95 87 79  95 87 79  95 87 79  95 87 79  95 87 79  95 87 79
29 43 83  29 43 83  29 43 83  29 43 83  29 43 83  29 43 83  29 43 83  29 43 83
95 87 79  95 87 79  95 87 79  95 87 79  29 43 83  95 87 79  95 87 79  95 87 79
95 87 79  95 87 79  194 195 199  95 87 79  29 43 83  95 87 79  95 87 79  95 87 79
95 87 79  95 87 79  95 87 79  95 87 79  29 43 83  95 87 79  95 87 79  95 87 79
29 43 83  29 43 83  29 43 83  29 43 83  29 43 83  29 43 83  29 43 83  29 43 83
95 87 79  95 87 79  95 87 79  95 87 79  95 87 79  95 87 79  95 87 79  95 87 79
