P3
# tile-fill: Wall interior tile. 5=fill 6=highlight 1=shadow; palette-swapped per biome.
8 8
255
95 87 79  95 87 79  95 87 79  95 87 79  95 87 79  95 87 79  95 87 79  95 87 79
95 87 79  95 87 79  95 87 79  95 87 79  95 87 79  29 43 83  95 87 79  95 87 79
95 87 79  194 195 199  95 87 79  95 87 79  95 87 79  95 87 79  95 87 79  95 87 79
95 87 79  95 87 79  95 87 79  95 87 79  95 87 79  95 87 79  95 87 79  95 87 79
95 87 79  95 87 79  95 87 79  95 87 79  95 87 79  95 87 79  194 195 199  95 87 79
95 87 79  95 87 79  29 43 83  95 87 79  95 87 79  95 87 79  95 87 79  95 87 79
95 87 79  95 87 79  95 87 79  95 87 79  95 87 79  95 87 79  95 87 79  95 87 79
95 87 79  95 87 79  95 87 79  95 87 79  95 87 79  95 87 79  95 87 79  95 87 79
