P3
# tile-rock: Cave rock tile: rougher speckle than tile-fill.
8 8
255
95 87 79  95 87 79  95 87 79  29 43 83  95 87 79  95 87 79  95 87 79  95 87 79
95 87 79  29 43 83  95 87 79  95 87 79  95 87 79  95 87 79  95 87 79  95 87 79
95 87 79  95 87 79  95 87 79  95 87 79  95 87 79  29 43 83  95 87 79  95 87 79
95 87 79  95 87 79  95 87 79  95 87 79  95 87 79  95 87 79  95 87 79  95 87 79
29 43 83  95 87 79  95 87 79  95 87 79  95 87 79  95 87 79  95 87 79  29 43 83
95 87 79  95 87 79  95 87 79  29 43 83  95 87 79  95 87 79  95 87 79  95 87 79
95 87 79  95 87 79  95 87 79  95 87 79  95 87 79  95 87 79  95 87 79  95 87 79
95 87 79  95 87 79  29 43 83  95 87 79  95 87 79  95 87 79  29 43 83  95 87 79
