P3
# wordmark-artifacts: ARTIFACTS wordmark, 5x7 block caps, white.
53 7
255
0 0 0  255 241 232  255 241 232  255 241 232  0 0 0  0 0 0  255 241 232  255 241 232  255 241 232  255 241 232  0 0 0  0 0 0  255 241 232  255 241 232  255 241 232  255 241 232  255 241 232  0 0 0  255 241 232  255 241 232  255 241 232  255 241 232  255 241 232  0 0 0  255 241 232  255 241 232  255 241 232  255 241 232  255 241 232  0 0 0  0 0 0  255 241 232  255 241 232  255 241 232  0 0 0  0 0 0  0 0 0  255 241 232  255 241 232  255 241 232  255 241 232  0 0 0  255 241 232  255 241 232  255 241 232  255 241 232  255 241 232  0 0 0  0 0 0  255 241 232  255 241 232  255 241 232  255 241 232
255 241 232  0 0 0  0 0 0  0 0 0  255 241 232  0 0 0  255 241 232  0 0 0  0 0 0  0 0 0  255 241 232  0 0 0  0 0 0  0 0 0  255 241 232  0 0 0  0 0 0  0 0 0  0 0 0  0 0 0  255 241 232  0 0 0  0 0 0  0 0 0  255 241 232  0 0 0  0 0 0  0 0 0  0 0 0  0 0 0  255 241 232  0 0 0  0 0 0  0 0 0  255 241 232  0 0 0  255 241 232  0 0 0  0 0 0  0 0 0  0 0 0  0 0 0  0 0 0  0 0 0  255 241 232  0 0 0  0 0 0  0 0 0  255 241 232  0 0 0  0 0 0  0 0 0  0 0 0
255 241 232  0 0 0  0 0 0  0 0 0  255 241 232  0 0 0  255 241 232  0 0 0  0 0 0  0 0 0  255 241 232  0 0 0  0 0 0  0 0 0  255 241 232  0 0 0  0 0 0  0 0 0  0 0 0  0 0 0  255 241 232  0 0 0  0 0 0  0 0 0  255 241 232  0 0 0  0 0 0  0 0 0  0 0 0  0 0 0  255 241 232  0 0 0  0 0 0  0 0 0  255 241 232  0 0 0  255 241 232  0 0 0  0 0 0  0 0 0  0 0 0  0 0 0  0 0 0  0 0 0  255 241 232  0 0 0  0 0 0  0 0 0  255 241 232  0 0 0  0 0 0  0 0 0  0 0 0
255 241 232  255 241 232  255 241 232  255 241 232  255 241 232  0 0 0  255 241 232  255 241 232  255 241 232  255 241 232  0 0 0  0 0 0  0 0 0  0 0 0  255 241 232  0 0 0  0 0 0  0 0 0  0 0 0  0 0 0  255 241 232  0 0 0  0 0 0  0 0 0  255 241 232  255 241 232  255 241 232  255 241 232  0 0 0  0 0 0  255 241 232  255 241 232  255 241 232  255 241 232  255 241 232  0 0 0  255 241 232  0 0 0  0 0 0  0 0 0  0 0 0  0 0 0  0 0 0  0 0 0  255 241 232  0 0 0  0 0 0  0 0 0  0 0 0  255 241 232  255 241 232  255 241 232  0 0 0
255 241 232  0 0 0  0 0 0  0 0 0  255 241 232  0 0 0  255 241 232  0 0 0  255 241 232  0 0 0  0 0 0  0 0 0  0 0 0  0 0 0  255 241 232  0 0 0  0 0 0  0 0 0  0 0 0  0 0 0  255 241 232  0 0 0  0 0 0  0 0 0  255 241 232  0 0 0  0 0 0  0 0 0  0 0 0  0 0 0  255 241 232  0 0 0  0 0 0  0 0 0  255 241 232  0 0 0  255 241 232  0 0 0  0 0 0  0 0 0  0 0 0  0 0 0  0 0 0  0 0 0  255 241 232  0 0 0  0 0 0  0 0 0  0 0 0  0 0 0  0 0 0  0 0 0  255 241 232
255 241 232  0 0 0  0 0 0  0 0 0  255 241 232  0 0 0  255 241 232  0 0 0  0 0 0  255 241 232  0 0 0  0 0 0  0 0 0  0 0 0  255 241 232  0 0 0  0 0 0  0 0 0  0 0 0  0 0 0  255 241 232  0 0 0  0 0 0  0 0 0  255 241 232  0 0 0  0 0 0  0 0 0  0 0 0  0 0 0  255 241 232  0 0 0  0 0 0  0 0 0  255 241 232  0 0 0  255 241 232  0 0 0  0 0 0  0 0 0  0 0 0  0 0 0  0 0 0  0 0 0  255 241 232  0 0 0  0 0 0  0 0 0  0 0 0  0 0 0  0 0 0  0 0 0  255 241 232
255 241 232  0 0 0  0 0 0  0 0 0  255 241 232  0 0 0  255 241 232  0 0 0  0 0 0  0 0 0  255 241 232  0 0 0  0 0 0  0 0 0  255 241 232  0 0 0  0 0 0  0 0 0  255 241 232  255 241 232  255 241 232  255 241 232  255 241 232  0 0 0  255 241 232  0 0 0  0 0 0  0 0 0  0 0 0  0 0 0  255 241 232  0 0 0  0 0 0  0 0 0  255 241 232  0 0 0  0 0 0  255 241 232  255 241 232  255 241 232  255 241 232  0 0 0  0 0 0  0 0 0  255 241 232  0 0 0  0 0 0  0 0 0  255 241 232  255 241 232  255 241 232  255 241 232  0 0 0
