P3
# wordmark-lithic: LITHIC wordmark, 5x7 block caps, white.
35 7
255
255 241 232  0 0 0  0 0 0  0 0 0  0 0 0  0 0 0  255 241 232  255 241 232  255 241 232  255 241 232  255 241 232  0 0 0  255 241 232  255 241 232  255 241 232  255 241 232  255 241 232  0 0 0  255 241 232  0 0 0  0 0 0  0 0 0  255 241 232  0 0 0  255 241 232  255 241 232  255 241 232  255 241 232  255 241 232  0 0 0  0 0 0  255 241 232  255 241 232  255 241 232  255 241 232
255 241 232  0 0 0  0 0 0  0 0 0  0 0 0  0 0 0  0 0 0  0 0 0  255 241 232  0 0 0  0 0 0  0 0 0  0 0 0  0 0 0  255 241 232  0 0 0  0 0 0  0 0 0  255 241 232  0 0 0  0 0 0  0 0 0  255 241 232  0 0 0  0 0 0  0 0 0  255 241 232  0 0 0  0 0 0  0 0 0  255 241 232  0 0 0  0 0 0  0 0 0  0 0 0
255 241 232  0 0 0  0 0 0  0 0 0  0 0 0  0 0 0  0 0 0  0 0 0  255 241 232  0 0 0  0 0 0  0 0 0  0 0 0  0 0 0  255 241 232  0 0 0  0 0 0  0 0 0  255 241 232  0 0 0  0 0 0  0 0 0  255 241 232  0 0 0  0 0 0  0 0 0  255 241 232  0 0 0  0 0 0  0 0 0  255 241 232  0 0 0  0 0 0  0 0 0  0 0 0
255 241 232  0 0 0  0 0 0  0 0 0  0 0 0  0 0 0  0 0 0  0 0 0  255 241 232  0 0 0  0 0 0  0 0 0  0 0 0  0 0 0  255 241 232  0 0 0  0 0 0  0 0 0  255 241 232  255 241 232  255 241 232  255 241 232  255 241 232  0 0 0  0 0 0  0 0 0  255 241 232  0 0 0  0 0 0  0 0 0  255 241 232  0 0 0  0 0 0  0 0 0  0 0 0
255 241 232  0 0 0  0 0 0  0 0 0  0 0 0  0 0 0  0 0 0  0 0 0  255 241 232  0 0 0  0 0 0  0 0 0  0 0 0  0 0 0  255 241 232  0 0 0  0 0 0  0 0 0  255 241 232  0 0 0  0 0 0  0 0 0  255 241 232  0 0 0  0 0 0  0 0 0  255 241 232  0 0 0  0 0 0  0 0 0  255 241 232  0 0 0  0 0 0  0 0 0  0 0 0
255 241 232  0 0 0  0 0 0  0 0 0  0 0 0  0 0 0  0 0 0  0 0 0  255 241 232  0 0 0  0 0 0  0 0 0  0 0 0  0 0 0  255 241 232  0 0 0  0 0 0  0 0 0  255 241 232  0 0 0  0 0 0  0 0 0  255 241 232  0 0 0  0 0 0  0 0 0  255 241 232  0 0 0  0 0 0  0 0 0  255 241 232  0 0 0  0 0 0  0 0 0  0 0 0
255 241 232  255 241 232  255 241 232  255 241 232  255 241 232  0 0 0  255 241 232  255 241 232  255 241 232  255 241 232  255 241 232  0 0 0  0 0 0  0 0 0  255 241 232  0 0 0  0 0 0  0 0 0  255 241 232  0 0 0  0 0 0  0 0 0  255 241 232  0 0 0  255 241 232  255 241 232  255 241 232  255 241 232  255 241 232  0 0 0  0 0 0  255 241 232  255 241 232  255 241 232  255 241 232
