P3
# wordmark-artifact: ARTIFACT wordmark, 5x7 block caps, white (pal-swapped to flash).
47 7
255
0 0 0  255 241 232  255 241 232  255 241 232  0 0 0  0 0 0  255 241 232  255 241 232  255 241 232  255 241 232  0 0 0  0 0 0  255 241 232  255 241 232  255 241 232  255 241 232  255 241 232  0 0 0  255 241 232  255 241 232  255 241 232  255 241 232  255 241 232  0 0 0  255 241 232  255 241 232  255 241 232  255 241 232  255 241 232  0 0 0  0 0 0  255 241 232  255 241 232  255 241 232  0 0 0  0 0 0  0 0 0  255 241 232  255 241 232  255 241 232  255 241 232  0 0 0  255 241 232  255 241 232  255 241 232  255 241 232  255 241 232
255 241 232  0 0 0  0 0 0  0 0 0  255 241 232  0 0 0  255 241 232  0 0 0  0 0 0  0 0 0  255 241 232  0 0 0  0 0 0  0 0 0  255 241 232  0 0 0  0 0 0  0 0 0  0 0 0  0 0 0  255 241 232  0 0 0  0 0 0  0 0 0  255 241 232  0 0 0  0 0 0  0 0 0  0 0 0  0 0 0  255 241 232  0 0 0  0 0 0  0 0 0  255 241 232  0 0 0  255 241 232  0 0 0  0 0 0  0 0 0  0 0 0  0 0 0  0 0 0  0 0 0  255 241 232  0 0 0  0 0 0
255 241 232  0 0 0  0 0 0  0 0 0  255 241 232  0 0 0  255 241 232  0 0 0  0 0 0  0 0 0  255 241 232  0 0 0  0 0 0  0 0 0  255 241 232  0 0 0  0 0 0  0 0 0  0 0 0  0 0 0  255 241 232  0 0 0  0 0 0  0 0 0  255 241 232  0 0 0  0 0 0  0 0 0  0 0 0  0 0 0  255 241 232  0 0 0  0 0 0  0 0 0  255 241 232  0 0 0  255 241 232  0 0 0  0 0 0  0 0 0  0 0 0  0 0 0  0 0 0  0 0 0  255 241 232  0 0 0  0 0 0
255 241 232  255 241 232  255 241 232  255 241 232  255 241 232  0 0 0  255 241 232  255 241 232  255 241 232  255 241 232  0 0 0  0 0 0  0 0 0  0 0 0  255 241 232  0 0 0  0 0 0  0 0 0  0 0 0  0 0 0  255 241 232  0 0 0  0 0 0  0 0 0  255 241 232  255 241 232  255 241 232  255 241 232  0 0 0  0 0 0  255 241 232  255 241 232  255 241 232  255 241 232  255 241 232  0 0 0  255 241 232  0 0 0  0 0 0  0 0 0  0 0 0  0 0 0  0 0 0  0 0 0  255 241 232  0 0 0  0 0 0
255 241 232  0 0 0  0 0 0  0 0 0  255 241 232  0 0 0  255 241 232  0 0 0  255 241 232  0 0 0  0 0 0  0 0 0  0 0 0  0 0 0  255 241 232  0 0 0  0 0 0  0 0 0  0 0 0  0 0 0  255 241 232  0 0 0  0 0 0  0 0 0  255 241 232  0 0 0  0 0 0  0 0 0  0 0 0  0 0 0  255 241 232  0 0 0  0 0 0  0 0 0  255 241 232  0 0 0  255 241 232  0 0 0  0 0 0  0 0 0  0 0 0  0 0 0  0 0 0  0 0 0  255 241 232  0 0 0  0 0 0
255 241 232  0 0 0  0 0 0  0 0 0  255 241 232  0 0 0  255 241 232  0 0 0  0 0 0  255 241 232  0 0 0  0 0 0  0 0 0  0 0 0  255 241 232  0 0 0  0 0 0  0 0 0  0 0 0  0 0 0  255 241 232  0 0 0  0 0 0  0 0 0  255 241 232  0 0 0  0 0 0  0 0 0  0 0 0  0 0 0  255 241 232  0 0 0  0 0 0  0 0 0  255 241 232  0 0 0  255 241 232  0 0 0  0 0 0  0 0 0  0 0 0  0 0 0  0 0 0  0 0 0  255 241 232  0 0 0  0 0 0
255 241 232  0 0 0  0 0 0  0 0 0  255 241 232  0 0 0  255 241 232  0 0 0  0 0 0  0 0 0  255 241 232  0 0 0  0 0 0  0 0 0  255 241 232  0 0 0  0 0 0  0 0 0  255 241 232  255 241 232  255 241 232  255 241 232  255 241 232  0 0 0  255 241 232  0 0 0  0 0 0  0 0 0  0 0 0  0 0 0  255 241 232  0 0 0  0 0 0  0 0 0  255 241 232  0 0 0  0 0 0  255 241 232  255 241 232  255 241 232  255 241 232  0 0 0  0 0 0  0 0 0  255 241 232  0 0 0  0 0 0
